!!!!SEGMENT: Fva2001-Sancta_trinitas.krn
!!!id: Fva2001
!!!AGN: Motet
!!!SCT: Nugent (2013)
!!!voices: 3
!!!COM: Antoine de Févin
!!!OTL: Sancta trinitas
**kern	**kern	**kern	**kern
*part4	*part3	*part2	*part1
*staff4	*staff3	*staff2	*staff1
*I"Bassus	*I"Tenor	*I"Altus	*I"Superius
*I'B	*I'T	*I'A	*I'S
*clefF4	*clefGv2	*clefGv2	*clefG2
*k[b-]	*k[b-]	*k[b-]	*k[b-]
*F:	*F:	*F:	*F:
*M2/1	*M2/1	*M2/1	*M2/1
*met(C|)	*met(C|)	*met(C|)	*met(C|)
!!Section: Prima pars: Sancta trinitas
!!!OMD: Prima pars: Sancta trinitas
=1	=1	=1	=1
0F	0F	0c	0f
=2	=2	=2	=2
0F	0A	0c	0f
=3	=3	=3	=3
1.C	1.c	1.e	1.g
2C	2c	2e	2g
=4	=4	=4	=4
0C	0c	0e	0g
=5	=5	=5	=5
0F	0c	[0f	1a
.	.	.	[1a
=6	=6	=6	=6
1F	1c	0f]	1a]
[1BB-y	[1d	.	[1b-y
=7	=7	=7	=7
1BB-]	1d]	0f	2b-]
.	.	.	2a
1F	1c	.	[1a
=8	=8	=8	=8
0G	0B-y	1.d	2a]
.	.	.	4g
.	.	.	4f
.	.	.	1g
.	.	2e	.
=9	=9	=9	=9
0F	0A	1.f	1a
.	.	.	[1cc
.	.	4e	.
.	.	4d	.
=10	=10	=10	=10
0r	0r	1c	2cc]
.	.	.	2b-y
.	.	1f	1a
=11	=11	=11	=11
0r	0r	1e	1g
.	.	2c	2e
.	.	[2d	[2f
=12	=12	=12	=12
0r	0r	2d]	4f]
.	.	.	4e
.	.	1c	4d
.	.	.	4c
.	.	.	1d
.	.	2Bni	.
=13	=13	=13	=13
1r	1r	0c	0c
[1F	1A	.	.
=14	=14	=14	=14
1F]	1A	0r	0r
1D	1F	.	.
=15	=15	=15	=15
2.C	2.G	0r	0r
4D	4F	.	.
2E	2G	.	.
2F	[2A	.	.
=16	=16	=16	=16
2C	2A]	0r	0r
1F	4G	.	.
.	4F	.	.
.	1G	.	.
2E	.	.	.
=17	=17	=17	=17
0F	0F	1r	1r
.	.	1f	1a
=18	=18	=18	=18
0r	0r	1f	1a
.	.	1d	1f
=19	=19	=19	=19
0r	0r	2.c	2.g
.	.	4d	4f
.	.	2e	2g
.	.	2f	[2a
=20	=20	=20	=20
0r	0r	2c	2a]
.	.	1f	4g
.	.	.	4f
.	.	.	1g
.	.	2e	.
=21	=21	=21	=21
1r	1r	1.f	2.f
.	.	.	4g
[1F	1A	.	4a
.	.	.	4b-y
.	.	4e	[2cc
.	.	4d	.
=22	=22	=22	=22
1F]	1A	2c	4cc]
.	.	.	4b-y
.	.	1d	1a
1D	1F	.	.
.	.	2B-y	4g
.	.	.	4f
=23	=23	=23	=23
1C	2.G	1c	2.e
.	4F	.	4d
2C	2G	2r	2e
[2F	[2A	2c	2f
=24	=24	=24	=24
2F]	2A]	2A	2c
4E	4G	2B-y	1f
4D	4F	.	.
1C	1G	[1c	.
.	.	.	2e
=25	=25	=25	=25
0FF	1F	0c]	0f
.	1r	.	.
=26	=26	=26	=26
1r	0c	0r	0r
[1F	.	.	.
=27	=27	=27	=27
1F]	1A	0r	0r
1D	1B-y	.	.
=28	=28	=28	=28
1E	2G	0r	0r
.	2.c	.	.
1C	.	.	.
.	4B-y	.	.
.	[2A	.	.
=29	=29	=29	=29
1D	2A]	0r	0r
.	4G	.	.
.	4F	.	.
2C	2E	.	.
[2D	[2F	.	.
=30	=30	=30	=30
2D]	4F]	0r	0r
.	4E	.	.
1C	4D	.	.
.	4C	.	.
.	1D	.	.
2BB-y	.	.	.
=31	=31	=31	=31
4C	2.C	0r	0r
4D	.	.	.
4E	.	.	.
4F	4D	.	.
2G	4E	.	.
.	4F	.	.
2E	2G	.	.
=32	=32	=32	=32
2F	2A	0r	0r
2G	2B-y	.	.
2E	2c	.	.
[2F	[2d	.	.
=33	=33	=33	=33
4F]	2d]	0r	0r
4E	.	.	.
4D	1c	.	.
4C	.	.	.
1D	.	.	.
.	2Bni	.	.
=34	=34	=34	=34
0C	0c	0r	1r
.	.	.	1g
=35	=35	=35	=35
0r	0r	0r	2.a
.	.	.	4g
.	.	.	2a
.	.	.	2b-y
=36	=36	=36	=36
0r	0r	1c	1cc
.	.	2.d	[1b-y
.	.	4c	.
=37	=37	=37	=37
0r	0r	2d	2b-]
.	.	2e	4a
.	.	.	4g
.	.	1f	1a
=38	=38	=38	=38
0r	0r	1.e	2.g
.	.	.	4f
.	.	.	2g
.	.	4d	[2a
.	.	4c	.
=39	=39	=39	=39
0r	0r	1d	2a]
.	.	.	4g
.	.	.	4f
.	.	2c	2g
.	.	4d	2a
.	.	4c	.
=40	=40	=40	=40
0r	0r	4d	2b-y
.	.	4c	.
.	.	4B-y	1a
.	.	4A	.
.	.	1B-y	.
.	.	.	2g
=41	=41	=41	=41
0r	1r	0A	0a
.	2r	.	.
.	2c	.	.
=42	=42	=42	=42
2r	2.d	0r	0r
2F	.	.	.
.	4c	.	.
2.G	2B-y	.	.
.	2A	.	.
4F	.	.	.
=43	=43	=43	=43
2E	2G	0r	0r
2D	2.c	.	.
1C	.	.	.
.	4B-y	.	.
.	4A	.	.
.	4G	.	.
=44	=44	=44	=44
1D	2B-y	0r	0r
.	1A	.	.
[1C	.	.	.
.	4G	.	.
.	4F	.	.
=45	=45	=45	=45
2C]	2E	0r	0r
4BB-y	2.G	.	.
4AA	.	.	.
2BB-y	.	.	.
.	4F	.	.
2C	4E	.	.
.	4D	.	.
=46	=46	=46	=46
2AA	2C	0r	0r
2FF	1F	.	.
1GG	.	.	.
.	2E	.	.
=47	=47	=47	=47
0FF	1F	1r	0r
.	1r	1F	.
=48	=48	=48	=48
1r	1F	0c	1r
1C	[1c	.	1g
=49	=49	=49	=49
0F	1c]	1A	1.a
.	1A	[1d	.
.	.	.	2g
=50	=50	=50	=50
1D	1.d	2d]	2.f
.	.	2c	.
.	.	.	4e
[1G	.	2.B-y	1d
.	2c	.	.
.	.	4A	.
=51	=51	=51	=51
2G]	2.B-y	[0G	1.g
2F	.	.	.
.	4A	.	.
2.E	1G	.	.
.	.	.	2f
4D	.	.	.
=52	=52	=52	=52
2C	1.c	1G]	2.e
2BB-y	.	.	.
.	.	.	4d
2.AA	.	[1c	1c
.	2B-y	.	.
4GG	.	.	.
=53	=53	=53	=53
0FF	2.A	2c]	1.cc
.	.	2B-y	.
.	4G	.	.
.	1F	2.A	.
.	.	.	2b-y
.	.	4G	.
=54	=54	=54	=54
0F	0c	1F	2.a
.	.	.	4g
.	.	[1f	1f
=55	=55	=55	=55
2.BB-y	1.d	0f]	1.b-y
4C	.	.	.
4D	.	.	.
4E	.	.	.
2F	2c	.	2a
=56	=56	=56	=56
2G	1B-y	2d	1g
2E	.	2e	.
1F	1A	1c	1f
=57	=57	=57	=57
1C	1G	2r	1e
.	.	1c	.
1D	1F	.	[1f
.	.	2B-y	.
=58	=58	=58	=58
1C	0G	1c	2f]
.	.	.	4e
.	.	.	4d
1C	.	[1c	1e
=59	=59	=59	=59
0FF	0F	0c]	0f
=60	=60	=60	=60
0r	0r	2r	2r
.	.	2f	2a
.	.	2f	2a
.	.	2e	2g
=61	=61	=61	=61
1r	1r	2f	2a
.	.	2d	2b-y
2r	2r	1c	1cc
2F	2A	.	.
=62	=62	=62	=62
2F	2A	0r	0r
2E	2G	.	.
2F	2A	.	.
2D	2B-y	.	.
=63	=63	=63	=63
1C	1c	2r	2r
.	.	2f	2a
1r	1r	2f	2a
.	.	2e	2g
=64	=64	=64	=64
0r	0r	2f	2a
.	.	2d	2b-y
.	.	2c	2cc
.	.	[2f	[2dd
=65	=65	=65	=65
0r	0r	2f]	2dd]
.	.	2e	1cc
.	.	1d	.
.	.	.	2bni
=66	=66	=66	=66
2r	2r	1c	1cc
2F	2A	.	.
2F	2A	1r	1r
2E	2G	.	.
=67	=67	=67	=67
2F	2A	0r	0r
2D	2B-y	.	.
2C	2c	.	.
[2F	[2d	.	.
=68	=68	=68	=68
2F]	2d]	0r	0r
2E	1c	.	.
1D	.	.	.
.	2Bni	.	.
=69	=69	=69	=69
1C	1c	2r	2r
.	.	2e	2g
1r	1r	1f	1a
=70	=70	=70	=70
2r	2r	1e	1g
2C	2G	.	.
1F	1A	1r	1r
=71	=71	=71	=71
1C	1G	2r	2r
.	.	2e	2g
1r	1r	1f	1a
=72	=72	=72	=72
0r	0r	2e	1g
.	.	1g	.
.	.	.	1e
.	.	4f	.
.	.	4e	.
=73	=73	=73	=73
0r	0r	4d	1f
.	.	4c	.
.	.	4B-y	.
.	.	4A	.
.	.	2G	1e
.	.	[2e	.
=74	=74	=74	=74
0r	0r	4e]	1c
.	.	4d	.
.	.	1c	.
.	.	.	2d
.	.	2Bni	2d
=75	=75	=75	=75
2r	2r	1c	1c
1C	2G	.	.
.	1A	1r	1r
4BB-y	.	.	.
4AA	.	.	.
=76	=76	=76	=76
2BB-y	1G	0r	0r
2.C	.	.	.
.	1E	.	.
4BB-y	.	.	.
4AA	.	.	.
4GG	.	.	.
=77	=77	=77	=77
4FF	1F	0r	0r
4GG	.	.	.
4AA	.	.	.
4BB-y	.	.	.
4C	1E	.	.
4D	.	.	.
[2E	.	.	.
=78	=78	=78	=78
4E]	1C	0r	0r
4D	.	.	.
1C	.	.	.
.	2D	.	.
2BBni	2D	.	.
=79	=79	=79	=79
0C	1C	2r	0r
.	.	2G	.
.	1r	1A	.
=80	=80	=80	=80
0r	2r	2G	0r
.	2C	1c	.
.	1D	.	.
.	.	2B-y	.
=81	=81	=81	=81
2r	1C	1c	0r
2C	.	.	.
1D	1F	2A	.
.	.	2B-y	.
=82	=82	=82	=82
2C	2E	1c	2r
2AA	1F	.	2c
1BB-y	.	1r	1d
.	2G	.	.
=83	=83	=83	=83
1AA	1.A	2r	1c
.	.	1c	.
1D	.	.	1f
.	4G	2B-y	.
.	4F	.	.
=84	=84	=84	=84
2C	2G	1c	2e
1F	2F	.	1a
.	1c	2.c	.
4E	.	.	4g
4D	.	4d	4f
=85	=85	=85	=85
2C	2c	2e	4g
.	.	.	4a
1BB-y	2.d	2.f	4b-y
.	.	.	4a
.	.	.	4b-y
.	4c	4e	4a
2BB-y	4B-y	2d	4g
.	4A	.	4f
=86	=86	=86	=86
2C	2G	2c	2e
2D	2F	2B-y	1f
1C	1G	1c	.
.	.	.	2e
=87	=87	=87	=87
0FF	0F	2r	0f
.	.	2G	.
.	.	1A	.
=88	=88	=88	=88
0r	2r	2G	0r
.	2C	1c	.
.	1D	.	.
.	.	2B-y	.
=89	=89	=89	=89
2r	1C	1c	0r
2C	.	.	.
1D	1F	2A	.
.	.	2B-y	.
=90	=90	=90	=90
2C	2E	2c	2r
2AA	1F	2d	2c
1BB-y	.	1r	1d
.	2G	.	.
=91	=91	=91	=91
1AA	1.A	2r	1c
.	.	1c	.
1D	.	.	1f
.	4G	2B-y	.
.	4F	.	.
=92	=92	=92	=92
2C	2G	1c	2e
1F	2F	.	1a
.	[1c	2.c	.
4E	.	.	4g
4D	.	4d	4f
=93	=93	=93	=93
2C	2c]	2e	4g
.	.	.	4a
1BB-y	2.d	2.f	4b-y
.	.	.	4a
.	.	.	4b-y
.	4c	4e	4a
2BB-y	4B-y	2d	4g
.	4A	.	4f
=94	=94	=94	=94
2C	2G	2c	2e
2D	2F	2B-y	1f
1C	1G	1c	.
.	.	.	2e
=95	=95	=95	=95
00FFl	00Fl	00cl	00fl
==	==	==	==
*-	*-	*-	*-
!!!system-decoration: [*]
!!!RDF**kern: i = editorial accidental
!!!RDF**kern: l = terminal long
!!!ENC: Benjamin Ory
!!!END: 2023/1/20
!!!EED: Benjamin Ory
!!!EEV: 2023/01/20
!!!YEC: Copyright 2023 Benjamin Ory, All Rights Reserved
!!!ONB: Translated from MusicXML on 2023/01/20
